dist/flags/l/052.svg

<svg width="32" height="24" viewBox="0 0 32 24" fill="none" xmlns="http://www.w3.org/2000/svg">
<mask id="mask0" mask-type="alpha" maskUnits="userSpaceOnUse" x="0" y="0" width="32" height="24">
<rect width="32" height="24" fill="white"/>
</mask>
<g mask="url(#mask0)">
<path fill-rule="evenodd" clip-rule="evenodd" d="M22 0H32V24H22V0Z" fill="#2E42A5"/>
<path fill-rule="evenodd" clip-rule="evenodd" d="M10 0H22V24H10V0Z" fill="#FECA00"/>
<path fill-rule="evenodd" clip-rule="evenodd" d="M0 0H10V24H0V0Z" fill="#2E42A5"/>
<path fill-rule="evenodd" clip-rule="evenodd" d="M18.612 15.6678C18.8 14.3782 20.1328 11.5753 20.1328 11.5753L20.7509 9.93074L18.3012 10.7256L18.8809 11.0273L17.7464 14.2258L16.8895 14.0212V7.85251L17.5674 7.80301L15.8953 5.37152L14.2628 7.85251H15.0505V14.0212L14.0852 14.1826L13.3967 10.9479L13.7942 10.6147L11.1289 10.1233L11.9246 11.5916C11.9246 11.5916 12.9956 14.1082 13.3967 15.6678L15.0505 15.5404V17.9375H16.8895V15.5404L18.612 15.6678Z" fill="black"/>
</g>
</svg>

<svg width="32" height="24" fill="none" xmlns="http://www.w3.org/2000/svg">
  <mask id="a" maskUnits="userSpaceOnUse" x="0" y="0" width="32" height="24">
    <path fill="#fff" d="M0 0h32v24H0z"/>
  </mask>
  <g mask="url(#a)" fill-rule="evenodd" clip-rule="evenodd">
    <path d="M22 0h10v24H22V0z" fill="#2E42A5"/>
    <path d="M10 0h12v24H10V0z" fill="#FECA00"/>
    <path d="M0 0h10v24H0V0z" fill="#2E42A5"/>
    <path d="M18.612 15.668c.188-1.29 1.52-4.093 1.52-4.093l.619-1.644-2.45.795.58.301-1.135 3.199-.856-.205V7.853l.677-.05-1.672-2.431-1.632 2.48h.787v6.17l-.965.16-.688-3.234.397-.333-2.665-.492.796 1.469s1.07 2.516 1.472 4.076l1.653-.128v2.398h1.84V15.54l1.722.128z" fill="#000"/>
  </g>
</svg>
